**kern	**dynam	**kern	**dynam	**kern	**dynam	**kern	**dynam	**mxhm	**kern	**kern	**kern
=1	=1	=1	=1	=1	=1	=1	=1	=1	=1	=1	=1
8r	.	8r	.	8r	.	4.r	.	I[I64	=1	B--	M3/8
(8BB--'L	.	(8F-'L 8B--	.	(8d-'L	.	4.r	.	I[I64	=1	B--	M3/8
8BB--'J)	.	8F-'J) 8B--	.	8d-'J)	.	4.r	.	I[I64	=1	B--	M3/8
=2	=2	=2	=2	=2	=2	=2	=2	=2	=2	=2	=2
[4.BB--	.	(8.F-L	.	(8d-L	.	(4ddd-	.	I[I64	=2	B--	M3/8
[4.BB--	.	(8.F-L	.	8b--)	.	(4ddd-	.	I[I64	=2	B--	M3/8
[4.BB--	.	16FL	.	8b--)	.	(4ddd-	.	I[I64	=2	B--	M3/8
[4.BB--	.	16G-	.	8b--J	.	16eee--LL	.	I[I64	=2	B--	M3/8
[4.BB--	.	16F-XJJ)	.	8b--J	.	16ddd-JJ)	.	I[I64	=2	B--	M3/8
=3	=3	=3	=3	=3	=3	=3	=3	=3	=3	=3	=3
4.BB--]	.	(8E-L	.	(8g-L	.	(8ddd-L	.	V(2)/V	=3	B--	M3/8
4.BB--]	.	8E--X	.	8A- 8g--X	.	8ccc-	.	viio7	=3	B--	M3/8
4.BB--]	.	8D-J)	.	8B--J) 8f-	.	8ddd-J	.	I]	=3	B--	M3/8
=4	=4	=4	=4	=4	=4	=4	=4	=4	=4	=4	=4
(16GG-LL	.	(16B--LL	.	(16e--LL	.	8eee--L	.	V65	=4	B--	M3/8
16AA-JJ	.	16F-JJ	.	16c-JJ	.	8eee--L	.	V65	=4	B--	M3/8
8BB--L	.	8F-L	.	8d-L	.	8.ddd-	.	I6	=4	B--	M3/8
8D-J)	.	8f-J)	.	8B--J)	.	8.ddd-	.	I6	=4	B--	M3/8
8D-J)	.	8f-J)	.	8B--J)	.	16fff-Jk)	.	I6	=4	B--	M3/8
=5	=5	=5	=5	=5	=5	=5	=5	=5	=5	=5	=5
8F-	.	(8f-	.	8A-	.	4ccc-	.	V	=5	B--	M3/8
8r	.	4A-)	.	8r	.	4ccc-	.	V	=5	B--	M3/8
8F-	.	4A-)	.	8f-	.	(8ccc-	.	V	=5	B--	M3/8
=6	=6	=6	=6	=6	=6	=6	=6	=6	=6	=6	=6
4.BB--	.	(8B--L	.	(8f-L	.	8ddd-L	.	I	=6	B--	M3/8
4.BB--	.	8F-	.	8d-	.	8bb--	.	I	=6	B--	M3/8
4.BB--	.	8f-J	.	8b--J)	.	8ddd-J	.	I	=6	B--	M3/8
=7	=7	=7	=7	=7	=7	=7	=7	=7	=7	=7	=7
(4AA-	<	8fL	<	(4cc-	<	8eee--L	<	#viio65/vi	=7	B--	M3/8
(4AA-	<	8F	<	(4cc-	<	8ccc-	<	#viio65/vi	=7	B--	M3/8
8GG-	[[	8G-J	[[	8b--	[[	8eee--J	[[	IV6	=7	B--	M3/8
=8	=8	=8	=8	=8	=8	=8	=8	=8	=8	=8	=8
8FFL	>	8A-L	>	8a-L	>	8.ddd-L)	>	vi	=8	B--	M3/8
16GG-L	>	16B--L	>	16d-L	>	8.ddd-L)	>	vi	=8	B--	M3/8
16BB--	>	16d-	>	16g-	>	16bb--L	>	vi6	=8	B--	M3/8
16C-	>	16c-	>	16f-	>	16aa-	>	V(64)/V	=8	B--	M3/8
16C-JJ)	]]	16B--JJ)	]]	16e-JJ)	]]	16gg-JJ	]]	V7/V	=8	B--	M3/8
=9	=9	=9	=9	=9	=9	=9	=9	=9	=9	=9	=9
(8FF-XL	]]	(8B--L	]]	(8e-L	]]	(8gg-L	]]	V(9#74)	=9	B--	M3/8
16F-Jk)	]]	16A-Jk)	]]	16c-Jk)	]]	8ff-J)	]]	V\\	=9	B--	M3/8
16r	]]	16r	]]	16r	]]	8ff-J)	]]	V\\	=9	B--	M3/8
8r	]]	8r	]]	(16a-LL	]]	(16cc-LL	]]	V\\	=9	B--	M3/8
8r	]]	8r	]]	16g-JJ	]]	16b--JJ	]]	V\\	=9	B--	M3/8
=10	=10	=10	=10	=10	=10	=10	=10	=10	=10	=10	=10
4.r	]]	(8e--L	]]	8f-L	]]	8a-L	]]	V2	=10	B--	M3/8
4.r	]]	8d-	]]	8g-	]]	8b--	]]	I6	=10	B--	M3/8
4.r	]]	8c-J)	]]	8a-J	]]	8cc-J	]]	V64	=10	B--	M3/8
=11	=11	=11	=11	=11	=11	=11	=11	=11	=11	=11	=11
8r	]]	[4.B--	]]	4b--)	]]	4dd-)	]]	I	=11	B--	M3/8
8r	]]	[4.B--	]]	4b--)	]]	4dd-)	]]	I	=11	B--	M3/8
(16F-LL	]]	[4.B--	]]	(16dd-LL	]]	(16ff-LL	]]	I64	=11	B--	M3/8
16G-JJ	]]	[4.B--	]]	16cc-JJ	]]	16ee--JJ	]]	ii43	=11	B--	M3/8
=12	=12	=12	=12	=12	=12	=12	=12	=12	=12	=12	=12
8A--XL	]]	(8B--L]	]]	8b--L	]]	8dd-L	]]	V2/IV	=12	B--	M3/8
8G-	]]	8b--	]]	8cc-	]]	8ee--	]]	IV6	=12	B--	M3/8
8F-J	]]	8B--J 8a--X	]]	8dd-J	]]	8ff-J	]]	V43/IV	=12	B--	M3/8
=13	=13	=13	=13	=13	=13	=13	=13	=13	=13	=13	=13
4E--)	<	4B--) 4g-	<	4ee--X)	<	4gg-)	<	IV	=13	B--	M3/8
(16D-LL	[ sf	(16B--LL	[ sf	(16ff-LL	[ sf	(16aa--XLL	[ sf	V65/IV	=13	B--	M3/8
16E--JJ)	[ sf	16g-JJ)	[ sf	16ee--JJ)	[ sf	16gg-JJ)	[ sf	IV	=13	B--	M3/8
=14	=14	=14	=14	=14	=14	=14	=14	=14	=14	=14	=14
4BB-	[ sf	4g-	[ sf	(8ee--L	[ sf	(8gg-L	[ sf	V6(6)/ii	=14	B--	M3/8
4BB-	[ sf	4g-	[ sf	8dd-J)	[ sf	8ff-J)	[ sf	V65/ii	=14	B--	M3/8
(16GG-LL	sf	(16G-LL	sf	(16ee--LL	sf	(16gg-LL	sf	V(6)/ii	=14	B--	M3/8
16BB-JJ)	sf	16g-JJ)	sf	16dd-JJ)	sf	16ff-JJ)	sf	V65/ii	=14	B--	M3/8
=15	=15	=15	=15	=15	=15	=15	=15	=15	=15	=15	=15
8.C-L	sf	8.g-L	sf	(8dd-L	sf	(8ff-L	sf	ii(94)	=15	B--	M3/8
8.C-L	sf	8.g-L	sf	16cc-L	sf	16ee--L	sf	ii	=15	B--	M3/8
16C-L	sf	16e--L	sf	16g-)	sf	16gg-)	sf	ii	=15	B--	M3/8
(16C-	sf	(16e--	sf	(16g-	sf	(16gg-	sf	ii	=15	B--	M3/8
16D-JJ	sf	16d-JJ)	sf	16b-JJ)	sf	16ff-JJ)	sf	#viio6/ii	=15	B--	M3/8
=16	=16	=16	=16	=16	=16	=16	=16	=16	=16	=16	=16
8E--L)	sf	8c-L	sf	8cc-L	sf	(16ff-LL	sf	ii6	=16	B--	M3/8
8E--L)	sf	8c-L	sf	8cc-L	sf	16ee--	sf	ii6	=16	B--	M3/8
8.EE--	sf	(8.e--	sf	(8.c- 8.g-	sf	16dd-	sf	ii6	=16	B--	M3/8
8.EE--	sf	(8.e--	sf	(8.c- 8.g-	sf	16cc-JJ	sf	ii6	=16	B--	M3/8
8.EE--	sf	(8.e--	sf	(8.c- 8.g-	sf	16aa-LL	sf	ii6	=16	B--	M3/8
16EE--Jk	sf	16f-Jk)	sf	16c-Jk) 16a-	sf	32gg-L	sf	V2	=16	B--	M3/8
16EE--Jk	sf	16f-Jk)	sf	16c-Jk) 16a-	sf	32a-JJJ	sf	V2	=16	B--	M3/8
=17	=17	=17	=17	=17	=17	=17	=17	=17	=17	=17	=17
16DD-LL	sf	(16f-LL	sf	(16B--XLL 16b--X	sf	16b--LL	sf	I6	=17	B--	M3/8
16GG-J	sf	16B--JJ)	sf	16e--JJ)	sf	32ff-L	sf	IV6	=17	B--	M3/8
16GG-J	sf	16B--JJ)	sf	16e--JJ)	sf	32ee--JJJ)	sf	IV6	=17	B--	M3/8
8FF-	f >	(8B--L	f >	(8f-L	f f >	(8dd-L	>	V(64)	=17	B--	M3/8
8FF-J	]]	8f-J)	]]	8a-J)	]]	8cc-J)	]]	V	=17	B--	M3/8
=18	=18	=18	=18	=18	=18	=18	=18	=18	=18	=18	=18
8BB--	p	(8d-L	p	8f-	p	(8b--L	p	I[I6	=18	B--	M3/8
[4BB--	p	8B--	p	[4e--	p	8.g-	p	ii	=18	B--	M3/8
[4BB--	p	[8c-J)	p	[4e--	p	8.g-	p	ii	=18	B--	M3/8
[4BB--	p	[8c-J)	p	[4e--	p	16cc-Jk)	p	ii	=18	B--	M3/8
=19	=19	=19	=19	=19	=19	=19	=19	=19	=19	=19	=19
8BB--L]	p	(8c-L]	p	(8e--L]	p	(8b--L	p	ii7	=19	B--	M3/8
8BB--	p	8F-	p	8A-	p	8a-	p	V	=19	B--	M3/8
8BB--J	p	16G-L	p	16B--L	p	16g-L	p	vi	=19	B--	M3/8
8BB--J	p	16A-JJ)	p	16c-JJ)	p	16f-JJ)	p	V6	=19	B--	M3/8
=20	=20	=20	=20	=20	=20	=20	=20	=20	=20	=20	=20
8BB--	p	(16B--LL	p	(16d-LL	p	(16f-LL	p	I	=20	B--	M3/8
8BB--	p	16D-JJ	p	[16B--JJ)	p	16b--JJ)	p	I	=20	B--	M3/8
[4BB--	p	[4E--)	p	(16B--LL]	p	(8.g-L	p	ii6	=20	B--	M3/8
[4BB--	p	[4E--)	p	16B-J)	p	(8.g-L	p	ii6	=20	B--	M3/8
[4BB--	p	[4E--)	p	[8c-J	p	(8.g-L	p	ii6	=20	B--	M3/8
[4BB--	p	[4E--)	p	[8c-J	p	32dd-LL	p	ii6	=20	B--	M3/8
[4BB--	p	[4E--)	p	[8c-J	p	32cc-JJJ)	p	ii6	=20	B--	M3/8
=21	=21	=21	=21	=21	=21	=21	=21	=21	=21	=21	=21
8BB--L]	p	(8E--L]	p	8.c-L]	p	(8b--L	p	ii65	=21	B--	M3/8
8BB--	p	8F-	p	8.c-L]	p	8a-	p	V	=21	B--	M3/8
8BB--	p	8F-	p	(16A-L	p	8a-	p	V	=21	B--	M3/8
8BB--J	p	16G-L	p	16B--X	p	16g-L	p	IV6	=21	B--	M3/8
8BB--J	p	16A-JJ)	p	16c-JJ)	p	16f-JJ)	p	V6	=21	B--	M3/8
=22	=22	=22	=22	=22	=22	=22	=22	=22	=22	=22	=22
(8BB--L	p	(4B--	p	(8d-L	p	(8f-L	p	I]	=22	B--	M3/8
8EE--	p	(4B--	p	8c-)	p	8g-	p	ii6	=22	B--	M3/8
8FF-J)	p	32A-LLL	p	8c-J	p	8a-J)	p	V	=22	B--	M3/8
8FF-J)	p	32G-	p	8c-J	p	8a-J)	p	V	=22	B--	M3/8
8FF-J)	p	32F-	p	8c-J	p	8a-J)	p	V	=22	B--	M3/8
8FF-J)	p	32E--JJJ)	p	8c-J	p	8a-J)	p	V	=22	B--	M3/8
=23	=23	=23	=23	=23	=23	=23	=23	=23	=23	=23	=23
8FF-J)	p	32E--JJJ)	p	8c-J	p	8qa-/	sf >	V	=23	B--	M3/8
4.FF-	sf > ]]	4.E--	sf sf > ]]	4c-	p	4.cc-	]]	V7	=23	B--	M3/8
4.FF-	sf > ]]	4.E--	sf sf > ]]	(32A-LLL	>	4.cc-	]]	V7	=23	B--	M3/8
4.FF-	sf > ]]	4.E--	sf sf > ]]	32c-	>	4.cc-	]]	V7	=23	B--	M3/8
4.FF-	sf > ]]	4.E--	sf sf > ]]	32f-	>	4.cc-	]]	V7	=23	B--	M3/8
4.FF-	sf > ]]	4.E--	sf sf > ]]	32A-JJJ)	]]	4.cc-	]]	V7	=23	B--	M3/8
=24	=24	=24	=24	=24	=24	=24	=24	=24	=24	=24	=24
8BB--	p	8D-	p	8B--	p	4b--	p	I\\	=24	B--	M3/8
[4B--	p	8r	p	8r	p	4b--	p	I\\	=24	B--	M3/8
[4B--	p	[8d--X	p	(8d--X	p	8r	p	i.i	=24	B--	M3/8
=25	=25	=25	=25	=25	=25	=25	=25	=25	=25	=25	=25
8B--]	p	8d--]	p	8g-)	p	(8ff-L	p	iv%43	=25	B--	M3/8
[4B--	p	[4d--X	p	[4f-	p	8dd--X)	p	i	=25	B--	M3/8
[4B--	p	[4d--X	p	[4f-	p	(16ff-'L	p	i	=25	B--	M3/8
[4B--	p	[4d--X	p	[4f-	p	16dd--'JJ)	p	i	=25	B--	M3/8
=26	=26	=26	=26	=26	=26	=26	=26	=26	=26	=26	=26
8B--]	p	8d--]	p	8f-]	p	(8cc-L	p	i(9)	=26	B--	M3/8
[4B--	p	[4d--X	p	[4f-	p	8b--J)	p	i\\	=26	B--	M3/8
[4B--	p	[4d--X	p	[4f-	p	(16b--'LL	p	i\\	=26	B--	M3/8
[4B--	p	[4d--X	p	[4f-	p	16dd--X'JJ)	p	i\\	=26	B--	M3/8
=27	=27	=27	=27	=27	=27	=27	=27	=27	=27	=27	=27
8B--]	p	8d--]	p	8f-]	p	8ff-L	p	i\\	=27	B--	M3/8
[4B--	p	[4d--X	p	[4f-	p	8bb--J	p	i\\	=27	B--	M3/8
[4B--	p	[4d--X	p	[4f-	p	(16ddd--X'LL	p	i\\	=27	B--	M3/8
[4B--	p	[4d--X	p	[4f-	p	16bb--'JJ)	p	i\\	=27	B--	M3/8
=28	=28	=28	=28	=28	=28	=28	=28	=28	=28	=28	=28
[4B--	p	[4d--X	p	[4f-	p	32qqaa-/LLL	p	i\\	=28	B--	M3/8
[4B--	p	[4d--X	p	[4f-	p	32qqbb--/	p	i\\	=28	B--	M3/8
[4B--	p	[4d--X	p	[4f-	p	32qqccc-/JJJ	p	i\\	=28	B--	M3/8
(8B--L]	p	(8d--L]	p	(8f-L]	p	(8bb--L	p	i\\	=28	B--	M3/8
8F-)	p	8c-)	p	8a-)	p	8aa-J)	p	V	=28	B--	M3/8
8F-J	p	8c-J	p	[8a--XJ	p	[8ccc-	p	.bIII.iii	=28	B--	M3/8
=29	=29	=29	=29	=29	=29	=29	=29	=29	=29	=29	=29
8G--X	p	8e--X	p	8a--]	p	4ccc-]	p	V2	=29	B--	M3/8
4G--	p	4A--X	p	4e--	p	4ccc-]	p	V2	=29	B--	M3/8
4G--	p	4A--X	p	4e--	p	8aa--X	p	V2	=29	B--	M3/8
=30	=30	=30	=30	=30	=30	=30	=30	=30	=30	=30	=30
8F-L	p	8A--X	p	8d--X	p	8ddd--XL	p	I6	=30	B--	M3/8
(16FF-L	f	(16A--LL	f f	(16d--LL	p	(16dd--XL	f	I6	=30	B--	M3/8
16FF-)	f	16A--JJ)	f f	16d--JJ)	p	16dd--JJ)	f	I6	=30	B--	M3/8
(16FF-	f	(16A--LL	f f	(16d--LL	p	(16cc--LL	f	V65/iv	=30	B--	M3/8
16FF-JJ)	f	16A--JJ)	f f	16d--JJ)	p	16cc--JJ)	f	V65/iv	=30	B--	M3/8
=31	=31	=31	=31	=31	=31	=31	=31	=31	=31	=31	=31
	B--	M3/8
	B--	M3/8
	=32	=32
	B--	M3/8
	!	!
	B--	M3/8
	=33	=33
	B--	M3/8
	!LO:TX:b:i:t=dim.	!LO:TX:b:i:t=dim.
	B--	M3/8
	=34	=34
	B--	M3/8
	B--	M3/8
	B--	M3/8
	B--	M3/8
	=35	=35
	B--	M3/8
	B--	M3/8
	B--	M3/8
	=36	=36
	B--	M3/8
	B--	M3/8
	B--	M3/8
	B--	M3/8
	B--	M3/8
	=37	=37
	B--	M3/8
	B--	M3/8
	B--	M3/8
	B--	M3/8
	B--	M3/8
	=38	=38
	B--	M3/8
	B--	M3/8
	B--	M3/8
	B--	M3/8
	B--	M3/8
	=39	=39
	B--	M3/8
	B--	M3/8
	B--	M3/8
	B--	M3/8
	=40	=40
	B--	M3/8
	B--	M3/8
	B--	M3/8
	B--	M3/8
	=41	=41
	B--	M3/8
	B--	M3/8
	B--	M3/8
	=42	=42
	B--	M3/8
	B--	M3/8
	B--	M3/8
	B--	M3/8
	B--	M3/8
	=43	=43
	B--	M3/8
	B--	M3/8
	B--	M3/8
	B--	M3/8
	=44	=44
	B--	M3/8
	B--	M3/8
	B--	M3/8
	B--	M3/8
	=45	=45
	B--	M3/8
	!LO:TX:b:i:t=cresc.	!LO:TX:b:i:t=cresc.
	B--	M3/8
	B--	M3/8
	B--	M3/8
	=46	=46
	B--	M3/8
	B--	M3/8
	B--	M3/8
	B--	M3/8
	=47	=47
	B--	M3/8
	B--	M3/8
	B--	M3/8
	B--	M3/8
	=48	=48
	B--	M3/8
	B--	M3/8
	B--	M3/8
	B--	M3/8
	B--	M3/8
	B--	M3/8
	B--	M3/8
	B--	M3/8
	=49	=49
	B--	M3/8
	B--	M3/8
	!LO:TX:b:i:t=espressivo	!LO:TX:b:i:t=espressivo
	B--	M3/8
	B--	M3/8
	=50	=50
	B--	M3/8
	B--	M3/8
	!LO:TX:a:i:t=espressivo	!LO:TX:a:i:t=espressivo
	B--	M3/8
	B--	M3/8
	=51	=51
	B--	M3/8
	B--	M3/8
	B--	M3/8
	B--	M3/8
	=52	=52
	B--	M3/8
	B--	M3/8
	B--	M3/8
	B--	M3/8
	B--	M3/8
	B--	M3/8
	=53	=53
	B--	M3/8
	B--	M3/8
	B--	M3/8
	B--	M3/8
	B--	M3/8
	B--	M3/8
	=54	=54
	B--	M3/8
	B--	M3/8
	B--	M3/8
	=55	=55
	B--	M3/8
	B--	M3/8
	B--	M3/8
	=56	=56
	!LO:TX:b:i:t=dim.	!LO:TX:b:i:t=dim.
	B--	M3/8
	B--	M3/8
	=57	=57
	B--	M3/8
	B--	M3/8
	=58	=58
	B--	M3/8
	!LO:TX:b:i:t=espress.	!LO:TX:b:i:t=espress.
	B--	M3/8
	B--	M3/8
	=59	=59
	B--	M3/8
	B--	M3/8
	B--	M3/8
	=60	=60
	B--	M3/8
	B--	M3/8
	B--	M3/8
	=61	=61
	B--	M3/8
	B--	M3/8
	B--	M3/8
	B--	M3/8
	B--	M3/8
	B--	M3/8
	=62	=62
	B--	M3/8
	B--	M3/8
	B--	M3/8
	B--	M3/8
	B--	M3/8
	B--	M3/8
	B--	M3/8
	B--	M3/8
	B--	M3/8
	B--	M3/8
	B--	M3/8
	B--	M3/8
	=63	=63
	B--	M3/8
	B--	M3/8
	B--	M3/8
	B--	M3/8
	=64	=64
	!	!
	B--	M3/8
	B--	M3/8
	B--	M3/8
	!	!
	B--	M3/8
	B--	M3/8
	B--	M3/8
	B--	M3/8
	B--	M3/8
	B--	M3/8
	=65	=65
	B--	M3/8
	B--	M3/8
	B--	M3/8
	B--	M3/8
	B--	M3/8
	B--	M3/8
	B--	M3/8
	B--	M3/8
	B--	M3/8
	B--	M3/8
	B--	M3/8
	=66	=66
	B--	M3/8
	B--	M3/8
	B--	M3/8
	B--	M3/8
	B--	M3/8
	B--	M3/8
	B--	M3/8
	B--	M3/8
	B--	M3/8
	B--	M3/8
	B--	M3/8
	B--	M3/8
	B--	M3/8
	B--	M3/8
	B--	M3/8
	B--	M3/8
	=67	=67
	B--	M3/8
	B--	M3/8
	B--	M3/8
	B--	M3/8
	B--	M3/8
	B--	M3/8
	B--	M3/8
	B--	M3/8
	B--	M3/8
	B--	M3/8
	=68	=68
	!LO:TX:b:i:t=cresc.	!LO:TX:b:i:t=cresc.
	B--	M3/8
	B--	M3/8
	B--	M3/8
	B--	M3/8
	B--	M3/8
	B--	M3/8
	B--	M3/8
	B--	M3/8
	B--	M3/8
	B--	M3/8
	B--	M3/8
	B--	M3/8
	B--	M3/8
	B--	M3/8
	B--	M3/8
	B--	M3/8
	=69	=69
	B--	M3/8
	B--	M3/8
	B--	M3/8
	B--	M3/8
	B--	M3/8
	B--	M3/8
	B--	M3/8
	B--	M3/8
	B--	M3/8
	B--	M3/8
	B--	M3/8
	B--	M3/8
	B--	M3/8
	B--	M3/8
	B--	M3/8
	B--	M3/8
	=70	=70
	B--	M3/8
	B--	M3/8
	B--	M3/8
	B--	M3/8
	B--	M3/8
	B--	M3/8
	B--	M3/8
	B--	M3/8
	B--	M3/8
	=71	=71
	B--	M3/8
	B--	M3/8
	B--	M3/8
	B--	M3/8
	B--	M3/8
	B--	M3/8
	B--	M3/8
	B--	M3/8
	B--	M3/8
	=72	=72
	B--	M3/8
	B--	M3/8
	B--	M3/8
	B--	M3/8
	B--	M3/8
	B--	M3/8
	B--	M3/8
	B--	M3/8
	B--	M3/8
	=73	=73
	B--	M3/8
	B--	M3/8
	B--	M3/8
	B--	M3/8
	B--	M3/8
	B--	M3/8
	B--	M3/8
	B--	M3/8
	B--	M3/8
	=74	=74
	B--	M3/8
	B--	M3/8
	B--	M3/8
	B--	M3/8
	B--	M3/8
	B--	M3/8
	B--	M3/8
	B--	M3/8
	B--	M3/8
	=75	=75
	B--	M3/8
	B--	M3/8
	B--	M3/8
	B--	M3/8
	B--	M3/8
	B--	M3/8
	B--	M3/8
	B--	M3/8
	B--	M3/8
	B--	M3/8
	=76	=76
	B--	M3/8
	B--	M3/8
	B--	M3/8
	B--	M3/8
	B--	M3/8
	B--	M3/8
	B--	M3/8
	B--	M3/8
	B--	M3/8
	B--	M3/8
	=77	=77
	B--	M3/8
	B--	M3/8
	B--	M3/8
	B--	M3/8
	B--	M3/8
	B--	M3/8
	B--	M3/8
	B--	M3/8
	B--	M3/8
	B--	M3/8
	=78	=78
	!LO:TX:b:i:t=cresc.	!LO:TX:b:i:t=cresc.
	B--	M3/8
	B--	M3/8
	B--	M3/8
	B--	M3/8
	B--	M3/8
	B--	M3/8
	B--	M3/8
	B--	M3/8
	B--	M3/8
	B--	M3/8
	B--	M3/8
	B--	M3/8
	B--	M3/8
	=79	=79
	B--	M3/8
	B--	M3/8
	B--	M3/8
	B--	M3/8
	B--	M3/8
	B--	M3/8
	B--	M3/8
	B--	M3/8
	B--	M3/8
	B--	M3/8
	B--	M3/8
	B--	M3/8
	=80	=80
	B--	M3/8
	B--	M3/8
	B--	M3/8
	B--	M3/8
	B--	M3/8
	B--	M3/8
	B--	M3/8
	B--	M3/8
	B--	M3/8
	B--	M3/8
	B--	M3/8
	=81	=81
	B--	M3/8
	B--	M3/8
	B--	M3/8
	B--	M3/8
	B--	M3/8
	B--	M3/8
	B--	M3/8
	B--	M3/8
	B--	M3/8
	B--	M3/8
	=82	=82
	B--	M3/8
	B--	M3/8
	B--	M3/8
	B--	M3/8
	B--	M3/8
	B--	M3/8
	B--	M3/8
	B--	M3/8
	B--	M3/8
	B--	M3/8
	=83	=83
	B--	M3/8
	B--	M3/8
	B--	M3/8
	B--	M3/8
	B--	M3/8
	B--	M3/8
	B--	M3/8
	B--	M3/8
	B--	M3/8
	=84	=84
	!LO:TX:b:i:t=cresc.	!LO:TX:b:i:t=cresc.
	B--	M3/8
	B--	M3/8
	B--	M3/8
	B--	M3/8
	B--	M3/8
	B--	M3/8
	B--	M3/8
	B--	M3/8
	B--	M3/8
	=85	=85
	B--	M3/8
	B--	M3/8
	B--	M3/8
	B--	M3/8
	B--	M3/8
	B--	M3/8
	B--	M3/8
	B--	M3/8
	B--	M3/8
	B--	M3/8
	=86	=86
	B--	M3/8
	B--	M3/8
	B--	M3/8
	B--	M3/8
	B--	M3/8
	=87	=87
	B--	M3/8
	B--	M3/8
	B--	M3/8
	B--	M3/8
	B--	M3/8
	B--	M3/8
	B--	M3/8
	B--	M3/8
	B--	M3/8
	B--	M3/8
	B--	M3/8
	B--	M3/8
	=88	=88
	B--	M3/8
	B--	M3/8
	B--	M3/8
	B--	M3/8
	B--	M3/8
	B--	M3/8
	B--	M3/8
	B--	M3/8
	B--	M3/8
	B--	M3/8
	B--	M3/8
	B--	M3/8
	=89	=89
	B--	M3/8
	B--	M3/8
	B--	M3/8
	B--	M3/8
	B--	M3/8
	B--	M3/8
	B--	M3/8
	B--	M3/8
	B--	M3/8
	B--	M3/8
	B--	M3/8
	B--	M3/8
	=90	=90
	B--	M3/8
	B--	M3/8
	B--	M3/8
	B--	M3/8
	B--	M3/8
	B--	M3/8
	B--	M3/8
	B--	M3/8
	B--	M3/8
	B--	M3/8
	B--	M3/8
	B--	M3/8
	=91	=91
	!LO:TX:b:i:t=cresc.	!LO:TX:b:i:t=cresc.
	B--	M3/8
	B--	M3/8
	B--	M3/8
	B--	M3/8
	B--	M3/8
	B--	M3/8
	B--	M3/8
	B--	M3/8
	B--	M3/8
	B--	M3/8
	B--	M3/8
	B--	M3/8
	=92	=92
	B--	M3/8
	B--	M3/8
	B--	M3/8
	B--	M3/8
	B--	M3/8
	B--	M3/8
	B--	M3/8
	B--	M3/8
	B--	M3/8
	B--	M3/8
	B--	M3/8
	B--	M3/8
	=93	=93
	B--	M3/8
	B--	M3/8
	B--	M3/8
	B--	M3/8
	B--	M3/8
	B--	M3/8
	B--	M3/8
	B--	M3/8
	B--	M3/8
	B--	M3/8
	B--	M3/8
	*clefC4	*clefC4
	B--	M3/8
	B--	M3/8
	B--	M3/8
	B--	M3/8
	=94	=94
	B--	M3/8
	B--	M3/8
	B--	M3/8
	B--	M3/8
	B--	M3/8
	B--	M3/8
	B--	M3/8
	B--	M3/8
	B--	M3/8
	B--	M3/8
	B--	M3/8
	B--	M3/8
	=95	=95
	!LO:TX:b:i:t=espress.	!LO:TX:b:i:t=espress.
	B--	M3/8
	B--	M3/8
	B--	M3/8
	B--	M3/8
	B--	M3/8
	B--	M3/8
	B--	M3/8
	B--	M3/8
	B--	M3/8
	B--	M3/8
	B--	M3/8
	B--	M3/8
	=96	=96
	B--	M3/8
	B--	M3/8
	B--	M3/8
	B--	M3/8
	B--	M3/8
	B--	M3/8
	B--	M3/8
	B--	M3/8
	B--	M3/8
	B--	M3/8
	B--	M3/8
	B--	M3/8
	=97	=97
	B--	M3/8
	B--	M3/8
	B--	M3/8
	B--	M3/8
	B--	M3/8
	B--	M3/8
	B--	M3/8
	B--	M3/8
	B--	M3/8
	B--	M3/8
	B--	M3/8
	B--	M3/8
	=98	=98
	B--	M3/8
	B--	M3/8
	B--	M3/8
	B--	M3/8
	B--	M3/8
	B--	M3/8
	B--	M3/8
	B--	M3/8
	B--	M3/8
	B--	M3/8
	B--	M3/8
	B--	M3/8
	=99	=99
	!LO:TX:b:i:t=cresc.	!LO:TX:b:i:t=cresc.
	B--	M3/8
	B--	M3/8
	!	!
	B--	M3/8
	B--	M3/8
	B--	M3/8
	B--	M3/8
	B--	M3/8
	B--	M3/8
	B--	M3/8
	B--	M3/8
	B--	M3/8
	B--	M3/8
	=100	=100
	B--	M3/8
	B--	M3/8
	B--	M3/8
	B--	M3/8
	B--	M3/8
	B--	M3/8
	B--	M3/8
	B--	M3/8
	B--	M3/8
	B--	M3/8
	B--	M3/8
	B--	M3/8
	=101	=101
	B--	M3/8
	B--	M3/8
	B--	M3/8
	B--	M3/8
	B--	M3/8
	B--	M3/8
	B--	M3/8
	B--	M3/8
	B--	M3/8
	B--	M3/8
	B--	M3/8
	B--	M3/8
	B--	M3/8
	B--	M3/8
	B--	M3/8
	=102	=102
	B--	M3/8
	B--	M3/8
	*clefF4	*clefF4
	B--	M3/8
	B--	M3/8
	B--	M3/8
	=103	=103
	B--	M3/8
	B--	M3/8
	B--	M3/8
	=104	=104
	B--	M3/8
	B--	M3/8
	B--	M3/8
	=105	=105
	B--	M3/8
	B--	M3/8
	B--	M3/8
	B--	M3/8
	=106	=106
	B--	M3/8
	!LO:TX:b:i:t=espress.	!LO:TX:b:i:t=espress.
	B--	M3/8
	=107	=107
	B--	M3/8
	B--	M3/8
	=108	=108
	B--	M3/8
	B--	M3/8
	B--	M3/8
	=109	=109
	B--	M3/8
	B--	M3/8
	B--	M3/8
	=110	=110
	B--	M3/8
	B--	M3/8
	!	!
	B--	M3/8
	B--	M3/8
	=111	=111
	B--	M3/8
	B--	M3/8
	B--	M3/8
	B--	M3/8
	B--	M3/8
	=112	=112
	B--	M3/8
	B--	M3/8
	B--	M3/8
	B--	M3/8
	B--	M3/8
	=113	=113
	B--	M3/8
	B--	M3/8
	B--	M3/8
	B--	M3/8
	B--	M3/8
	B--	M3/8
	B--	M3/8
	B--	M3/8
	B--	M3/8
	=114	=114
	B--	M3/8
	B--	M3/8
	B--	M3/8
	B--	M3/8
	B--	M3/8
	B--	M3/8
	B--	M3/8
	B--	M3/8
	B--	M3/8
	B--	M3/8
	=115	=115
	!	!
	B--	M3/8
	B--	M3/8
	B--	M3/8
	B--	M3/8
	!	!
	B--	M3/8
	B--	M3/8
	B--	M3/8
	B--	M3/8
	B--	M3/8
	B--	M3/8
	B--	M3/8
	B--	M3/8
	=116	=116
	B--	M3/8
	B--	M3/8
	B--	M3/8
	B--	M3/8
	B--	M3/8
	B--	M3/8
	B--	M3/8
	B--	M3/8
	B--	M3/8
	B--	M3/8
	B--	M3/8
	B--	M3/8
	=117	=117
	B--	M3/8
	B--	M3/8
	B--	M3/8
	B--	M3/8
	B--	M3/8
	B--	M3/8
	B--	M3/8
	B--	M3/8
	B--	M3/8
	B--	M3/8
	B--	M3/8
	B--	M3/8
	=118	=118
	B--	M3/8
	B--	M3/8
	B--	M3/8
	B--	M3/8
	B--	M3/8
	B--	M3/8
	B--	M3/8
	B--	M3/8
	B--	M3/8
	B--	M3/8
	B--	M3/8
	B--	M3/8
	=119	=119
	!LO:TX:a:i:t=cresc.	!LO:TX:a:i:t=cresc.
	B--	M3/8
	B--	M3/8
	!LO:TX:b:i:t=cresc.	!LO:TX:b:i:t=cresc.
	B--	M3/8
	B--	M3/8
	B--	M3/8
	B--	M3/8
	B--	M3/8
	B--	M3/8
	B--	M3/8
	B--	M3/8
	B--	M3/8
	B--	M3/8
	B--	M3/8
	B--	M3/8
	B--	M3/8
	B--	M3/8
	=120	=120
	B--	M3/8
	B--	M3/8
	B--	M3/8
	B--	M3/8
	B--	M3/8
	B--	M3/8
	B--	M3/8
	B--	M3/8
	B--	M3/8
	B--	M3/8
	B--	M3/8
	B--	M3/8
	=121	=121
	B--	M3/8
	B--	M3/8
	B--	M3/8
	B--	M3/8
	B--	M3/8
	B--	M3/8
	B--	M3/8
	B--	M3/8
	B--	M3/8
	B--	M3/8
	B--	M3/8
	B--	M3/8
	B--	M3/8
	B--	M3/8
	B--	M3/8
	B--	M3/8
	=122	=122
	B--	M3/8
	B--	M3/8
	B--	M3/8
	B--	M3/8
	B--	M3/8
	B--	M3/8
	B--	M3/8
	B--	M3/8
	B--	M3/8
	B--	M3/8
	=123	=123
	B--	M3/8
	B--	M3/8
	B--	M3/8
	B--	M3/8
	B--	M3/8
	B--	M3/8
	B--	M3/8
	B--	M3/8
	B--	M3/8
	B--	M3/8
	B--	M3/8
	B--	M3/8
	=124	=124
	B--	M3/8
	B--	M3/8
	B--	M3/8
	B--	M3/8
	B--	M3/8
	B--	M3/8
	B--	M3/8
	B--	M3/8
	B--	M3/8
	B--	M3/8
	B--	M3/8
	B--	M3/8
	=125	=125
	B--	M3/8
	B--	M3/8
	B--	M3/8
	B--	M3/8
	B--	M3/8
	B--	M3/8
	B--	M3/8
	B--	M3/8
	B--	M3/8
	B--	M3/8
	B--	M3/8
	B--	M3/8
	=126	=126
	!LO:TX:a:i:t=cresc.	!LO:TX:a:i:t=cresc.
	B--	M3/8
	B--	M3/8
	B--	M3/8
	B--	M3/8
	B--	M3/8
	B--	M3/8
	B--	M3/8
	B--	M3/8
	B--	M3/8
	B--	M3/8
	B--	M3/8
	B--	M3/8
	=127	=127
	B--	M3/8
	B--	M3/8
	B--	M3/8
	B--	M3/8
	B--	M3/8
	B--	M3/8
	B--	M3/8
	B--	M3/8
	B--	M3/8
	B--	M3/8
	B--	M3/8
	B--	M3/8
	=128	=128
	B--	M3/8
	B--	M3/8
	B--	M3/8
	B--	M3/8
	B--	M3/8
	B--	M3/8
	B--	M3/8
	B--	M3/8
	B--	M3/8
	B--	M3/8
	B--	M3/8
	B--	M3/8
	=129	=129
	!LO:TX:a:i:t=cresc.	!LO:TX:a:i:t=cresc.
	B--	M3/8
	B--	M3/8
	!LO:TX:b:i:t=cresc.	!LO:TX:b:i:t=cresc.
	B--	M3/8
	B--	M3/8
	B--	M3/8
	B--	M3/8
	B--	M3/8
	B--	M3/8
	B--	M3/8
	B--	M3/8
	B--	M3/8
	B--	M3/8
	=130	=130
	B--	M3/8
	B--	M3/8
	B--	M3/8
	B--	M3/8
	!	!
	B--	M3/8
	B--	M3/8
	B--	M3/8
	B--	M3/8
	B--	M3/8
	B--	M3/8
	B--	M3/8
	B--	M3/8
	=131	=131
	!	!
	B--	M3/8
	B--	M3/8
	B--	M3/8
	B--	M3/8
	B--	M3/8
	B--	M3/8
	B--	M3/8
	B--	M3/8
	B--	M3/8
	B--	M3/8
	B--	M3/8
	B--	M3/8
	=132	=132
	B--	M3/8
	B--	M3/8
	B--	M3/8
	B--	M3/8
	B--	M3/8
	B--	M3/8
	B--	M3/8
	B--	M3/8
	B--	M3/8
	B--	M3/8
	B--	M3/8
	B--	M3/8
	=133	=133
	B--	M3/8
	B--	M3/8
	B--	M3/8
	B--	M3/8
	B--	M3/8
	B--	M3/8
	B--	M3/8
	B--	M3/8
	B--	M3/8
	B--	M3/8
	B--	M3/8
	B--	M3/8
	=134	=134
	B--	M3/8
	B--	M3/8
	B--	M3/8
	B--	M3/8
	B--	M3/8
	B--	M3/8
	B--	M3/8
	B--	M3/8
	B--	M3/8
	B--	M3/8
	B--	M3/8
	B--	M3/8
	=135	=135
	!	!
	B--	M3/8
	B--	M3/8
	!LO:TX:b:i:t=cresc.	!LO:TX:b:i:t=cresc.
	B--	M3/8
	B--	M3/8
	B--	M3/8
	B--	M3/8
	B--	M3/8
	B--	M3/8
	B--	M3/8
	B--	M3/8
	B--	M3/8
	B--	M3/8
	=136	=136
	B--	M3/8
	B--	M3/8
	B--	M3/8
	B--	M3/8
	B--	M3/8
	B--	M3/8
	B--	M3/8
	B--	M3/8
	B--	M3/8
	B--	M3/8
	B--	M3/8
	B--	M3/8
	=137	=137
	B--	M3/8
	B--	M3/8
	B--	M3/8
	B--	M3/8
	B--	M3/8
	B--	M3/8
	=138	=138
	B--	M3/8
	B--	M3/8
	B--	M3/8
	B--	M3/8
	B--	M3/8
	B--	M3/8
	=139	=139
	B--	M3/8
	B--	M3/8
	B--	M3/8
	B--	M3/8
	=140	=140
	B--	M3/8
	B--	M3/8
	B--	M3/8
	B--	M3/8
	=141	=141
	!	!
	B--	M3/8
	!LO:TX:b:i:t=cresc.	!LO:TX:b:i:t=cresc.
	B--	M3/8
	B--	M3/8
	B--	M3/8
	=142	=142
	B--	M3/8
	B--	M3/8
	!LO:TX:b:i:t=dim. p	!LO:TX:b:i:t=dim. p
	B--	M3/8
	B--	M3/8
	B--	M3/8
	B--	M3/8
	=143	=143
	B--	M3/8
	B--	M3/8
	B--	M3/8
	B--	M3/8
	=144	=144
	B--	M3/8
	B--	M3/8
	B--	M3/8
	B--	M3/8
	B--	M3/8
	=145	=145
	!LO:TX:a:i:t=cresc.	!LO:TX:a:i:t=cresc.
	!LO:TX:b:i:t=cresc.	!LO:TX:b:i:t=cresc.
	B--	M3/8
	B--	M3/8
	B--	M3/8
	B--	M3/8
	B--	M3/8
	B--	M3/8
	=146	=146
	B--	M3/8
	B--	M3/8
	B--	M3/8
	B--	M3/8
	B--	M3/8
	B--	M3/8
	=147	=147
	B--	M3/8
	B--	M3/8
	B--	M3/8
	B--	M3/8
	B--	M3/8
	B--	M3/8
	B--	M3/8
	=148	=148
	!LO:TX:b:i:t=cresc.	!LO:TX:b:i:t=cresc.
	B--	M3/8
	B--	M3/8
	B--	M3/8
	!LO:TX:a:i:t=cresc.	!LO:TX:a:i:t=cresc.
	B--	M3/8
	B--	M3/8
	!	!
	B--	M3/8
	B--	M3/8
	=149	=149
	B--	M3/8
	B--	M3/8
	B--	M3/8
	B--	M3/8
	B--	M3/8
	B--	M3/8
	B--	M3/8
	=150	=150
	B--	M3/8
	B--	M3/8
	B--	M3/8
	B--	M3/8
	B--	M3/8
	B--	M3/8
	B--	M3/8
	B--	M3/8
	=151	=151
	B--	M3/8
	B--	M3/8
	B--	M3/8
	B--	M3/8
	B--	M3/8
	B--	M3/8
	B--	M3/8
	B--	M3/8
	=152	=152
	B--	M3/8
	B--	M3/8
	B--	M3/8
	B--	M3/8
	=153	=153
	B--	M3/8
	B--	M3/8
	B--	M3/8
	B--	M3/8
	=154	=154
	B--	M3/8
	B--	M3/8
	*clefC4	*clefC4
	B--	M3/8
	=155	=155
	B--	M3/8
	B--	M3/8
	B--	M3/8
	=156	=156
	B--	M3/8
	B--	M3/8
	*clefF4	*clefF4
	B--	M3/8
	=157	=157
	B--	M3/8
	B--	M3/8
	B--	M3/8
	=158	=158
	B--	M3/8
	B--	M3/8
	B--	M3/8
	B--	M3/8
	B--	M3/8
	=159	=159
	B--	M3/8
	B--	M3/8
	B--	M3/8
	=160	=160
	B--	M3/8
	B--	M3/8
	B--	M3/8
	=161	=161
	B--	M3/8
	B--	M3/8
	B--	M3/8
	=162	=162
	!LO:TX:a:i:t=cresc.	!LO:TX:a:i:t=cresc.
	!LO:TX:b:i:t=cresc.	!LO:TX:b:i:t=cresc.
	B--	M3/8
	=163	=163
	!	!
	B--	M3/8
	=164	=164
	B--	M3/8
	!LO:TX:b:i:t=espressivo morendo	!LO:TX:b:i:t=espressivo morendo
	!LO:TX:a:i:t=espressivo morendo	!LO:TX:a:i:t=espressivo morendo
	B--	M3/8
	!	!
	B--	M3/8
	=165	=165
	B--	M3/8
	B--	M3/8
	B--	M3/8
	=166	=166
	B--	M3/8
	B--	M3/8
	B--	M3/8
	=167	=167
	B--	M3/8
	B--	M3/8
	B--	M3/8
	=168	=168
	B--	M3/8
	B--	M3/8
	B--	M3/8
	=169	=169
	B--	M3/8
	B--	M3/8
	B--	M3/8
	=:|!	=:|!
	*-	*-
	!!!system-decoration: [(s1,s2,s3,s4)]	!!!system-decoration: [(s1,s2,s3,s4)]
